svgs/sharp-regular/house-user.svg

<svg xmlns="http://www.w3.org/2000/svg" viewBox="0 0 576 512"><!--! Font Awesome Pro 6.6.0 by @fontawesome - https://fontawesome.com License - https://fontawesome.com/license (Commercial License) Copyright 2024 Fonticons, Inc. --><path d="M288 .5l15.5 13.2 264 224-31.1 36.6L512 253.5 512 488l0 24-24 0L88 512l-24 0 0-24 0-234.5L39.5 274.3 8.5 237.7l264-224L288 .5zM112 212.8L112 464l352 0 0-251.2L288 63.5 112 212.8zM224 224a64 64 0 1 1 128 0 64 64 0 1 1 -128 0zm144 96l32 96-224 0 32-96 160 0z"/></svg>

<svg xmlns="http://www.w3.org/2000/svg" viewBox="0 0 576 512"><!--! Font Awesome Pro 6.4.2 by @fontawesome - https://fontawesome.com License - https://fontawesome.com/license (Commercial License) Copyright 2023 Fonticons, Inc. --><path d="M288 .5l15.5 13.2 264 224-31.1 36.6L512 253.5V488v24H488 88 64V488 253.5L39.5 274.3 8.5 237.7l264-224L288 .5zM112 212.8V464H464V212.8L288 63.5 112 212.8zM224 224a64 64 0 1 1 128 0 64 64 0 1 1 -128 0zm144 96l32 96H176l32-96H368z"/></svg>
